symbols/web/tag/materialsymbolsrounded/tag_wght500gradN25_24px.svg

<svg xmlns="http://www.w3.org/2000/svg" height="24" width="24"><path d="M7.225 20.075q-.5 0-.812-.4-.313-.4-.188-.9l.675-2.7H4.775q-.525 0-.85-.413-.325-.412-.2-.937.1-.35.388-.575.287-.225.662-.225H7.45l.95-3.85H5.775q-.525 0-.85-.413-.325-.412-.2-.937.1-.35.388-.575.287-.225.662-.225H8.95l.8-3.2q.1-.35.375-.575.275-.225.65-.225.5 0 .813.4.312.4.187.9l-.675 2.7h3.85l.8-3.2q.1-.35.375-.575.275-.225.65-.225.5 0 .813.4.312.4.187.9l-.675 2.7h2.125q.525 0 .85.413.325.412.2.937-.1.35-.387.575-.288.225-.663.225H16.55l-.95 3.85h2.625q.525 0 .85.412.325.413.2.938-.1.35-.387.575-.288.225-.663.225H15.05l-.8 3.2q-.1.35-.375.575-.275.225-.65.225-.5 0-.812-.4-.313-.4-.188-.9l.675-2.7H9.05l-.8 3.2q-.1.35-.375.575-.275.225-.65.225Zm2.375-6.15h3.825l.975-3.85h-3.825Z"/></svg>

<svg xmlns="http://www.w3.org/2000/svg" height="24" width="24"><path d="M7.225 20.075Q6.725 20.075 6.413 19.675Q6.1 19.275 6.225 18.775L6.9 16.075H4.775Q4.25 16.075 3.925 15.662Q3.6 15.25 3.725 14.725Q3.825 14.375 4.113 14.15Q4.4 13.925 4.775 13.925H7.45L8.4 10.075H5.775Q5.25 10.075 4.925 9.662Q4.6 9.25 4.725 8.725Q4.825 8.375 5.113 8.15Q5.4 7.925 5.775 7.925H8.95L9.75 4.725Q9.85 4.375 10.125 4.15Q10.4 3.925 10.775 3.925Q11.275 3.925 11.588 4.325Q11.9 4.725 11.775 5.225L11.1 7.925H14.95L15.75 4.725Q15.85 4.375 16.125 4.15Q16.4 3.925 16.775 3.925Q17.275 3.925 17.588 4.325Q17.9 4.725 17.775 5.225L17.1 7.925H19.225Q19.75 7.925 20.075 8.338Q20.4 8.75 20.275 9.275Q20.175 9.625 19.888 9.85Q19.6 10.075 19.225 10.075H16.55L15.6 13.925H18.225Q18.75 13.925 19.075 14.337Q19.4 14.75 19.275 15.275Q19.175 15.625 18.888 15.85Q18.6 16.075 18.225 16.075H15.05L14.25 19.275Q14.15 19.625 13.875 19.85Q13.6 20.075 13.225 20.075Q12.725 20.075 12.413 19.675Q12.1 19.275 12.225 18.775L12.9 16.075H9.05L8.25 19.275Q8.15 19.625 7.875 19.85Q7.6 20.075 7.225 20.075ZM9.6 13.925H13.425L14.4 10.075H10.575Z"/></svg>
